X: 38492
T: Steamroller MacTeige's, The
R: polka
M: 2/4
K: Gmajor
A|:Bd G>A|Bd G2|AA/G/ FD|A/B/A/G/ FD|
Bd G>A|Bd G2|AA/G/ FD|G2 GA:|
|:Bd ed|gg/g/ g2|ff/f/ fd|ed BA|
Bd ed|g2 ga|ba/a/ fa|e2- ed:|

